X:1
T:O Star of Matchless Splendor
T:O Star of Matchless Splendor
T:Ira Bishop Wilson
T:Ida Lilliard Reed, 1913
T:Public Domain Courtesy of the Cyber Hymnal™
T:Public Domain Courtesy of the Cyber Hymnal™
C:Ira Bishop Wilson
Z:Public Domain
Z:Courtesy of the Cyber Hymnal™
%%score 1 ( 2 3 )
L:1/8
M:6/4
K:Ab
V:1 treble 
V:2 bass 
V:3 bass 
V:1
 [CE]2 | [CE]4 [CA]2 [Fd]4 [Ec]2 | [DB]6 [DF]4 [DF]2 | [DG]4 [DG]2 [DB]4 [DG]2 | %4
w: 1.~O|star of match- less|splen- dor, We|hail thy beau- teous|
w: 2.~O|star of match- less|splen- dor, Tho’|cen- tu- ries have|
w: 3.~O|star of match- less|splen- dor, On|ev- ery land shine|
 [CE]6- [CE]4 [CE]2 | [DF]4 [GB]2 [FA]4 [DF]2 | [CE]6 [CA]4 [CA]2 | [=DA]4 [DF]2 [DB]4 [Dc]2 | %8
w: light; * We|hail the glor- ious|tid- ings Of|that first Christ- mas|
w: rolled * A-|way since thy clear|shin- ing Bathed|Beth- le- hem in|
w: clear, * Till|all shall see thy|ra- diance, And|thy sweet mes- sage|
 [DB]6- [DB]4 [CE]2 | [B,D]4 [CE]2 [EG]4 [DF]2 | [DF]4 [CE]2 [CA]4 [CE]2 | %11
w: night. * No|star of all the|glor- ious train, That|
w: gold, * Thy|beams are fall- ing|pure and clear, On|
w: hear. * Till|ev- ery sha- dow|of the night Is|
 [B,D]4 [CE]2 [EG]4 [Fd]2 | [=Ec]6- [Ec]4 [Ec]2 | [Ec]4 [Ec]2 [Fd]4 [Ec]2 | %14
w: decks Heav’n’s a- zure|plain, * Com-|pares with thy ce-|
w: lands a- far and|near, * And|ev- ery day more|
w: lost in con- quering|light, * And|all the world thy|
 [=Dc]4 [DF]2 !fermata![DB]4 [DA]2 | [DA]4 [DG]2 !fermata![Ec]4 [DB]2 | [CA]6- [CA]4 || %17
w: les- tial ray, O|star of hope most|bright. *|
w: won- der- ful Thy|mes- sage doth un-|fold. *|
w: Lord shall know, O|star of love so|dear. *|
"^Refrain" [Ge]2 [EB]2 [Ec]2 [Gd]6 | [Ec]2 [CE]2 [EA]2 [=EG]6 | %19
w: ||
w: Beau- ti- ful star,|won- der- ful star,|
w: ||
 [DF]2 [FA]2 [Fd]2 [Ec]2 [EB]2 [EA]2 | [=DA]2 [DG]2 [DA]2 [EB]6 | [Ec]2 [Ec]2 [Ec]2 [De]2 [DB]4 | %22
w: |||
w: Guid- ing us on- ward thro’|earth’s dark- est night;|Bright is thy beam- ing,|
w: |||
 [Fd]2 [DF]2 [EG]2 [DF]2 [CE]4 | [EA]2 [EB]2 [Ec]2 [Ec]2 [DB]2"^riten." [DF]2 | %24
w: ||
w: gold- en thy gleam- ing,|Beau- ti- ful, beau- ti- ful|
w: ||
 [=DA]4 [_DB]2 [CA]4 |] %25
w: |
w: star so bright.|
w: |
V:2
 z2 | A,,2 [E,A,]2 [E,A,]2 =A,,2 [F,=A,]2 [F,A,]2 | B,,2 [F,B,]2 [F,B,]2 B,,2 [F,B,]2 [F,B,]2 | %3
 E,,2 [E,G,B,]2 [E,G,B,]2 E,,2 [E,G,B,]2 [E,G,B,]2 | A,,2 [E,A,]2 [E,A,]2 G,2 F,2 E,2 | %5
 D,2 A,2 A,2 D,2 A,2 A,2 | A,,2 [E,A,]2 [E,A,]2 G,,2 [F,A,]2 [F,A,]2 | %7
 B,,2 [A,B,]2 [A,B,]2 B,,2 [A,B,]2 [A,B,]2 | E,,2 [E,A,]2 [E,F,]2 [E,G,]4 z2 | %9
 E,,2 [E,G,]2 [E,G,]2 E,,2 [E,G,]2 [E,G,]2 | A,,2 [E,A,]2 [E,A,]2 E,,2 [E,A,]2 [E,A,]2 | %11
 B,,2 [E,G,]2 [E,G,]2 E,,2 B,,2 =B,,2 | C,2 G,2 =E,2 C,4 z2 | %13
 =A,,2 [F,=A,]2 [F,A,]2 F,,2 [F,A,]2 [F,A,]2 | z2 !fermata![B,,A,]4 z2 x4 | %15
 E,,2 [E,B,]2 [E,B,]2 (E,,2 !fermata![E,B,]2) [E,B,]2 | [A,,A,]2 E,2 C,2 A,,4 || %17
 [E,B,]2 [E,G,]2 [E,A,]2 [E,B,]6 | [A,,A,]2 [A,,A,]2 [A,,C]2 [C,B,]6 | %19
 [D,A,]2 [D,A,]2 [D,A,]2 [A,,A,]2 [B,,G,]2 [C,A,]2 | [B,,B,]2 [B,,B,]2 [B,,F,]2 [E,G,]6 | %21
 [A,,A,]2 [A,,G,]2 [A,,F,]2 [A,,G,]2 [E,G,]4 | [E,B,]2 [E,G,]2 [E,G,]2 [A,,A,]2 [A,,A,]4 | %23
 [C,A,]2 [E,G,]2 A,2 C2 B,2 F,2 | [B,,F,]4 [E,G,]2 [A,,A,]4 |] %25
V:3
 x2 | x12 | x12 | x12 | x12 | x12 | x12 | x12 | x12 | x12 | x12 | x12 | x12 | x12 | %14
 B,,6- F,2 B,2 x2 | x12 | x10 || x12 | x12 | x12 | x12 | x12 | x12 | x4 A,2 C2 B,2 F,2 | x10 |] %25

